X: 11249
T: Dusty Miller, The
R: slip jig
M: 9/8
K: Dmajor
|:A2 AG BG|A2 AG Bd|A2 AG BG|BG G2 Bd:|
|:AD D2 Ad|AD D2 Bd|AD D2 GA|B2 BA Bd:|
|:A2 AG AD|A2 AG B/c/d|A2 AG AD|BG G2 Bd:|
|:AD D2 AD|AD D2 Bd|AD D2 AD|BG G2 Bd:|

